X:133
T:The King of Tabby Manor
R:hornpipe
C: 2007, 2010 L.E. McCullough 
M:4/4
L:1/8
K:D 
FG|:ABAF d3A|(3Bcd AF ~G3B|ADFA (3FGA df|~g3f ed (3Bcd|
ABAF d3A|(3Bcd AF ~B3d|ABdf Bdgf|1 (3efe dc d2FG:|2 (3efe dc d2de|]
|:~f2df edcA|~B2GB AFDF|~G2BG (3FGA dF|EGBd ed (3cBA|
fAdf ec~A2|(3Bcd GB AFDF|~G2BG (3FGA df|1 (3efe dc d2de:|2 (3efe dc d2FG|]

